X: 1
T: Cooley's
M: 4/4
L: 1/8
K: C
|:"G"d2f2c2Bc|-c2 Bc-c2 ^c2|
w: ba by's good to me * you know_ she's 
"G"d2f2c2Bc|-c2 Bc-c2 ^c2|
w: hap-py as can be_ you know_ she
"D"d2d2z2z2|z8|
w: said so
"D"d2dd-d2_d2|"C"c2c_B-"Bb"_Bc_BG
w: I'm in love_ with her and I_ feel_ fine
EBBA B2 EB|B2 AB defg|afe^c dBAF|DEFD E2:|
|:gf|eB B2 efge|eB B2 gedB|A2 FA DAFA|A2 FA defg|
eB B2 eBgB|eB B2 defg|afe^c dBAF|DEFD E2:|